taco.svg

<svg fill="currentColor" viewBox="0 0 24 24"><path d="M19 18H5a4 4 0 0 1-4-4 8 8 0 0 1 8-8c1.06 0 2.07.21 3 .58.93-.37 1.94-.58 3-.58a8 8 0 0 1 8 8 4 4 0 0 1-4 4M3 14a2 2 0 0 0 2 2 2 2 0 0 0 2-2c0-2.37 1.03-4.5 2.67-5.96L9 8a6 6 0 0 0-6 6m16 2a2 2 0 0 0 2-2 6 6 0 0 0-6-6 6 6 0 0 0-6 6c0 .73-.19 1.41-.54 2z"/></svg>

<svg  viewBox="0 0 24 24" fill="currentColor"><path  d="M19,18H5A4,4 0 0,1 1,14A8,8 0 0,1 9,6C10.06,6 11.07,6.21 12,6.58C12.93,6.21 13.94,6 15,6A8,8 0 0,1 23,14A4,4 0 0,1 19,18M3,14A2,2 0 0,0 5,16A2,2 0 0,0 7,14C7,11.63 8.03,9.5 9.67,8.04L9,8A6,6 0 0,0 3,14M19,16A2,2 0 0,0 21,14A6,6 0 0,0 15,8A6,6 0 0,0 9,14C9,14.73 8.81,15.41 8.46,16H19Z"/></svg>
